X: 1379
T: Muhayyer Sazsemâîsi
C: Tanburî Cemil Bey
O: Turkey
F: http://compmusic.upf.edu/node/140
N: muhayyer--sazsemaisi--aksaksemai----tanburi_cemil_bey
N: makam= muhayyer
N: form= sazsemaisi
N: usul= aksaksemai = 10/8
M: 10/8
L: 1/16
K: C _2/4B ^3/4f  
Q: 1/4=180
%%MIDI tuningsystem comma53
A4 a2ab agfe fga4z2  | a2g2 f2e3de2 f2g2 a2b2  | 
w:  1. HANE  |   | 
{d'}c'4 c'bb3aa2 b2a2 g2f2  | g4 f2ba gf^2/4fe {g}fee4z2  | 
w:   |   | 
g2a2 a2ac' bag=f edcB A2a2  | g2ag =f2gf e2fe d2ed cdeg  | 
w:  TESLİM  |   | 
=f4 fee3dd2 e2d2 c2B2  | g2=f2 e2a2 g2f2 e2d2 c2d2  | \
w:   |   | 
Bcde dcc3BBA BAA4z2  | 
w:   | 
g2a2 a2ac' bag=f edcB A2a2  | g2ag =f2gf e2fe d2ed cdeg  | 
w:  TESLİM  |   | 
=f4 fee3dd2 e2d2 c2B2  | g2=f2 e2a2 g2f2 e2d2 c2d2  | \
w:   |   | 
Bcde dcc3BBA BAA4z2  | 
w:   | 
d4 _7/8efg3_bag fed4ef  | gf_7/8ed c2g2 g2_ba gfg4z2  | 
w:  2. HANE  |   | 
c4 Bcd4z2 cd_7/8e4de  | f4 g2f_7/8e dcfe edd4z2  | 
w:   |   | 
g2a2 a2ac' bag=f edcB A2a2  | g2ag =f2gf e2fe d2ed cdeg  | 
w:  TESLİM  |   | 
=f4 fee3dd2 e2d2 c2B2  | g2=f2 e2a2 g2f2 e2d2 c2d2  | \
w:   |   | 
Bcde dcc3BBA BAA4z2  | 
w:   | 
g2a2 a2ac' bag=f edcB A2a2  | g2ag =f2gf e2fe d2ed cdeg  | 
w:  TESLİM  |   | 
=f4 fee3dd2 e2d2 c2B2  | g2=f2 e2a2 g2f2 e2d2 c2d2  | \
w:   |   | 
Bcde dcc3BBA BAA4z2  | 
w:   | 
c'4 c'bba g2a2 b2c'2 d'2c'b  | a4 gfg3fc'2 baa4z2  | 
w:  3. HANE  |   | 
abc'b c'd'a3gab c'd'a3^a=ag  | g3a g=ff3ea2 a2ag fed2  | 
w:   |   | 
d2e2 f2g3_ba2 g2=f2 e2d2  | e4 dcd2 cB=f2 edd4z2  | 
w:   |   | 
g2a2 a2ac' bag=f edcB A2a2  | g2ag =f2gf e2fe d2ed cdeg  | 
w:  TESLİM  |   | 
=f4 fee3dd2 e2d2 c2B2  | g2=f2 e2a2 g2f2 e2d2 c2d2  | \
w:   |   | 
Bcde dcc3BBA BAA4z2  | 
w:   | 
g2a2 a2ac' bag=f edcB A2a2  | g2ag =f2gf e2fe d2ed cdeg  | 
w:  TESLİM  |   | 
=f4 fee3dd2 e2d2 c2B2  | g2=f2 e2a2 g2f2 e2d2 c2d2  | \
w:   |   | 
Bcde dcc3BBA BAA4z2  | 
w:   | 
z24  | f3ga3b(3c'2b2a2(3g2f2g2a8  | g3f(3c'2b2a2(3g2f2g2(3a2g2f2e6d2  | 
w:  |  4. HANE  |   | 
(3f2g2a2e3dd3c(3=f2e2d2d8  | f3ga3bc'3ba3g=f3ed4  | 
w:   |   | 
a3g(3=f2e2d2f3e(3d2c2B2d3c(3B2A2G2  | \
w:   | 
A3G(3=f2e2d2c3B(3c2B2A2A6z2  | 
w:   | 
f3ga3b(3c'2b2a2(3g2f2g2a8  | g3f(3c'2b2a2(3g2f2g2(3a2g2f2e6d2  | 
w:  4. HANE  |   | 
(3f2g2a2e3dd3c(3=f2e2d2d8  | f3ga3bc'3ba3g=f3ed4  | 
w:   |   | 
a3g(3=f2e2d2f3e(3d2c2B2d3c(3B2A2G2  | \
w:   | 
A3G(3=f2e2d2c3B(3c2B2A2A6z2  | 
w:   | 
z20  | g2a2 a2ac' bag=f edcB A2a2  | \
w:  |  TESLİM  | 
g2ag =f2gf e2fe d2ed cdeg  | 
w:   | 
=f4 fee3dd2 e2d2 c2B2  | g2=f2 e2a2 g2f2 e2d2 c2d2  | \
w:   |   | 
Bcde dcc3BBA BAA4z2  | 
w:   | 
g2a2 a2ac' bag=f edcB A2a2  | g2ag =f2gf e2fe d2ed cdeg  | 
w:  TESLİM  |   | 
=f4 fee3dd2 e2d2 c2B2  | g2=f2 e2a2 g2f2 e2d2 c2d2  | \
w:   |   | 
Bcde dcc3BBA BAA4z2  | 
w:   | 
|


